!!!SOCIAL_FUNCTION:	songs of the sun dance
!!!PDT:	1922
!!!OTL: No_24_Sun_Dance_Song_(g).krn
!!!REG: Southwest
!!!LANG: Non-Tone
!!!LING_GROUP: Uto-Aztecan
**kern	**kern
*staff2	*staff1
*clefF4	*clefF4
*k[b-e-a-]	*k[b-e-a-]
*M3/4	*M3/4
8r	8g\
=1	=1
8GG/L	4.g\
8GG/J	.
8GG/L	.
8GG/J	8e-\
8GG/L	8g\L
8GG/J	8g\J
=2||	=2||
*M2/4	*M2/4
2r	4.g\
.	8e-\
=3||	=3||
*M3/4	*M3/4
2.r	8f\L
.	8f\J
.	8.f\L
.	16g\Jk
.	8g\L
.	8f\J
=4||	=4||
*M2/4	*M2/4
2r	4e-\
.	4c\
=5||	=5||
*M3/4	*M3/4
2.r	8G\L
.	8G\J
.	2G\
=6	=6
2.r	8e-\L
.	8e-\J
.	4.e-\
.	8G\
=7	=7
2.r	8e-\L
.	8e-\J
.	4.e-\
.	8G\
=8	=8
2.r	8c\L
.	8c\J
.	4.c\
.	8G\
=9	=9
2.r	8G\L
.	8G\J
.	4.G\
.	8E-\
=10	=10
2.r	8F\L
.	8F\J
.	8.F\L
.	16G\Jk
.	8G\L
.	8F\J
=11||	=11||
*M2/4	*M2/4
2r	4E-\
.	12F\L
.	12E-\
.	12C\J
=12	=12
2r	2C/
==	==
*-	*-
